X:3970
T:Man in a Brown Hat
O:england
M:2/2
L:1/8
Q:220
C:Cliff Stapleton
S:Blowzabella
K:Dm
F2 FG E2 D2|F2 G2 A4|A2 AB G2 d2|cdcd AcFc|
D3 E F2 D2|F2 G2 A4|A2 AB AGFG|E4 D4:|
defe d2 A2|c2 =B2 A4|DEFG A2 d2|cdcd A=BcA|
defe d2 A2|c2 =B2 A4|DEFG AGFG|E4 D4:|
